img/search-icon.svg

<svg width="18" height="18" viewBox="0 0 18 18" fill="none" xmlns="http://www.w3.org/2000/svg">
<path d="M6.5 0C8.22391 0 9.87721 0.684819 11.0962 1.90381C12.3152 3.12279 13 4.77609 13 6.5C13 8.11 12.41 9.59 11.44 10.73L11.71 11H12.5L17.5 16L16 17.5L11 12.5V11.71L10.73 11.44C9.55055 12.4468 8.05071 12.9999 6.5 13C4.77609 13 3.12279 12.3152 1.90381 11.0962C0.684819 9.87721 0 8.22391 0 6.5C0 4.77609 0.684819 3.12279 1.90381 1.90381C3.12279 0.684819 4.77609 0 6.5 0ZM6.5 2C4 2 2 4 2 6.5C2 9 4 11 6.5 11C9 11 11 9 11 6.5C11 4 9 2 6.5 2Z" fill="#535353"/>
</svg>

<svg width="18" height="18" fill="none" xmlns="http://www.w3.org/2000/svg"><path d="M6.5 0A6.5 6.5 0 0 1 13 6.5c0 1.61-.59 3.09-1.56 4.23l.27.27h.79l5 5-1.5 1.5-5-5v-.79l-.27-.27A6.516 6.516 0 0 1 6.5 13a6.5 6.5 0 1 1 0-13Zm0 2C4 2 2 4 2 6.5S4 11 6.5 11 11 9 11 6.5 9 2 6.5 2Z" fill="#535353"/></svg>
